X: 02135
T: VALLIE'S QUICKSTEP
C: Bob McQuillen Apr'76
B: Bob's Note Book 1&2 #135
%R: quickstep, march
Z: 2019 John Chambers <jc:trillian.mit.edu>
M: C
L: 1/8
K: A
e2 \
| A2E2 A2B2 | cBAc B2cd | e2a2 f2ed | cBAc B2E2 |\
| A2E2 A2B2 | cBAc B2cd | e2a2 faed | c2A2 A2  :|
|: cd \
| e2c2 e2c2 | dcBA F2AF | E2A2 cAce | faec B2cd |\
| e2c2 e2c2 | dcBA FGAF | E2A2 Bcde | c2A2 A2  :|
%%begintext align
%% For Valery Bataille of
%% Francestown, N.H.
%%endtext

%%sep 1 1 500

%%sep 1 1 500

